X: 1
T: Vals efter Johan August Nilsson
T: Vals fr. Munkedal
O: \"Ovg 53
R: waltz
Z: 2021 John Chambers <jc:trillian.mit.edu>
F: https://app.box.com/s/u6iiren0igvsukrhdducy7orq72jayq8/file/774012606213 (Bruce Sagan's scanfolk archive)
F: http://www.stefanlinden.se/L/vals%20fr%20Munkedal%20Bh%202st%20V1.pdf
M: 3/4
L: 1/8
K: A	% and Am
zE2 |\
"Am"=c2 BA GA | B2 =c2 [e2B2] | "A"e2 ^de fe | ce a2 c2 |\
"Am"=cd cB A2- | A=c BA GA | "E7"Be ed BG | "Am(A)"A3 :|
|: "(E7)"e fg |\
"A"{g}a ac df | fe e^d eg | "E7"gb be ed | "A"c2 cB c>d |\
"A"(3efg a2 a2- | "D"A>d f2 f2 | "E7"dc BA GB |1 "(A)"BA c :|2 "A"A3 |]
